X: 1633
T: Youghal Harbour   #2
%S: s:2 b:14(7+7)
B: O'Neills 1850 #1633
O: F.O'Neill
Z: Nick Terhorst, nickte@microsoft.com
M: 2/4
L: 1/16
K: G
BA | GFEF GABd | egfa gage | dcBA [1,3 G2Bd | cBAG Ec :|[2,4 B>AG/F/E/F/ | G2G2 G2 :: dc | Bdef g2fg |
| agfg edge | dcBA G2Bd | cBAG EcBA || GFEF GABd | egfa gage | dcBA B>AG/F/E/F/ | G2G2 G2 :|
